src/assets/curso/temas/tema_5/img_20.svg

<svg height="54.456" viewBox="0 0 365 54.456" width="365" xmlns="http://www.w3.org/2000/svg"><rect fill="#ffebc9" height="43" rx="21.5" width="307.949" x="57.051" y="6"/><g fill="#73964a"><path d="m49.4 27.228-13.985 15.5 13.053 11.728 24.562-27.221-.007-.007.007-.007-24.562-27.221-13.054 11.729z"/><path d="m24.919 47.229 17.946-20-.155-.139-17.803-19.834-9.514 8.594 10.192 11.357-10.222 11.393z" transform="translate(0 -.256)"/><path d="m7.264 42.391 13.636-15.156-.117-.106-13.528-15.035-7.232 6.514 7.747 8.607-7.77 8.633z" transform="translate(0 -.094)"/></g></svg>

<svg xmlns="http://www.w3.org/2000/svg" width="365" height="54.456" viewBox="0 0 365 54.456">
  <g id="Grupo_1127831" data-name="Grupo 1127831" transform="translate(-180.526 -2261.721)">
    <rect id="Rectángulo_409398" data-name="Rectángulo 409398" width="307.949" height="43" rx="21.5" transform="translate(237.577 2267.721)" fill="#ffebc9"/>
    <g id="Grupo_1116532" data-name="Grupo 1116532" transform="translate(0.526 -1816)">
      <path id="Trazado_877785" data-name="Trazado 877785" d="M49.4,27.228l-13.985,15.5L48.468,54.456,73.03,27.235l-.007-.007.007-.007L48.468,0,35.414,11.729Z" transform="translate(180 4077.721)" fill="#73964a"/>
      <path id="Trazado_877786" data-name="Trazado 877786" d="M24.919,47.229l17.946-20-.155-.139L24.907,7.256,15.393,15.85,25.585,27.207,15.363,38.6Z" transform="translate(180 4077.465)" fill="#73964a"/>
      <path id="Trazado_877787" data-name="Trazado 877787" d="M7.264,42.391,20.9,27.235l-.117-.106L7.255,12.094.023,18.608,7.77,27.215,0,35.848Z" transform="translate(180 4077.627)" fill="#73964a"/>
    </g>
  </g>
</svg>
